X:7
T:Agneau de l'alliance fidle - A220
C:J. Berthier
M:C
L:1/8
K:Cm
zG|"Dom"G2GG "Sib"B2BB|("Mib"G4 "Sib"F2)zF|"Dom"E2F2 "Sol"D2DD|"Dom"E2GF "Sol"D4|"Dom"E2E2 "Sib"F2EF|
"Mib"G3G "Lab"ccBA|"Mib"G4||"Dom"E2E2 "Sib"F2EF|"Mib"G2zG "Fam"FE"Sol"DE|"Dom"C6 zG||
